X:1
T: Rothiemurchie's Rant
C:
R:Strathspey
Q: 128
K:C
M:4/4
L:1/16
|:G2|E3D EC3 EG3 G4|c3G A3G c2G2 Ac3|E3D E3C EG3 G3c|A3c G3c ED3 D2g2|
e4 d3c d3e d2A2|c3d e3d edcB cG3|AAA2 a3g e4 d2c2|A3c G3c ED3 D2g2|
eg3 g3a g3a g2d2|ea3 a3b a3b a2g2|eg3 d3e c3d e2d2|Aa3 g3e e3d d3e|
ge3 d3e de3 a4|ge3 d3e cA3 A3c|G3A c3d ((3c2d2e2) d2c2|A3c G3c ED3 D2:|
g2|f2e2 d2c2 de3 a4|ge3 e3d cA3 A2g2|a3e g3d e4 d2c2|A3c G3c ED3 D2||
